themes/default/assets/images/icons/mid/fast.svg

<?xml version="1.0" encoding="UTF-8"?>
<svg width="100px" height="74px" viewBox="0 0 100 74" version="1.1" xmlns="http://www.w3.org/2000/svg" xmlns:xlink="http://www.w3.org/1999/xlink">
    <!-- Generator: sketchtool 59 (101010) - https://sketch.com -->
    <title>A2359133-E20A-422D-BA69-35C3CA3D314E</title>
    <desc>Created with sketchtool.</desc>
    <g id="Page-1" stroke="none" stroke-width="1" fill="none" fill-rule="evenodd">
        <g id="Icons" transform="translate(-1093.000000, -2501.000000)" fill-rule="nonzero">
            <g id="mid-icon-fast" transform="translate(1093.000000, 2501.000000)">
                <path d="M50.4950495,32.25 C49.2425941,32.2609031 48.2340739,33.2778804 48.2377104,34.5262582 C48.2413667,35.7746359 49.2558108,36.7857431 50.5083087,36.7893873 C51.7608065,36.7930119 52.7811401,35.7878091 52.7920792,34.5394737 C52.7796438,34.1599515 52.6706194,33.7898085 52.4752475,33.4638158 L57.1683168,28.7269737 C57.4417251,28.4544648 57.4417251,28.0126405 57.1683168,27.7401316 C56.8949085,27.4676227 56.4516261,27.4676227 56.1782178,27.7401316 L51.4851485,32.4868421 C51.1777619,32.3331067 50.8389581,32.2520613 50.4950495,32.25 Z M50.4950495,35.4276316 C49.9919782,35.4276316 49.5841584,35.0211533 49.5841584,34.5197368 C49.5841584,34.0183204 49.9919782,33.6118421 50.4950495,33.6118421 C50.9981208,33.6118421 51.4059406,34.0183204 51.4059406,34.5197368 C51.4059406,34.7605255 51.309972,34.9914521 51.1391468,35.1617154 C50.9683216,35.3319787 50.7366328,35.4276316 50.4950495,35.4276316 Z" id="Shape" fill="#2969F6"></path>
                <path d="M55.6831683,19.125 C55.4416701,19.0138398 55.1576479,19.0502528 54.9522349,19.2187093 C54.746822,19.3871658 54.6562663,19.6579392 54.7191892,19.9155467 C54.7821121,20.1731543 54.9874099,20.3721375 55.2475248,20.4276316 C62.2067218,22.7500371 66.4432074,29.7663249 65.2436051,36.982716 C64.0440028,44.199107 57.76355,49.4786155 50.4247397,49.4398314 C43.0859294,49.4010474 36.8619993,44.055456 35.7392407,36.8267917 C34.6164821,29.5981275 38.9273769,22.6270107 45.9108911,20.3782895 C46.1705001,20.337001 46.3833077,20.1508995 46.4581454,19.8997124 C46.5329831,19.6485252 46.4565722,19.3768211 46.2616479,19.2010003 C46.0667235,19.0249405 45.7878716,18.9764383 45.5445545,19.0756579 C37.9230649,21.532882 33.2207098,29.1435914 34.4493855,37.0330655 C35.6780612,44.9225396 42.473898,50.7543272 50.4841076,50.7933161 C58.4943172,50.8319157 65.3466931,45.0662278 66.6522333,37.1890272 C67.9577734,29.3118266 63.329845,21.6559296 55.7326733,19.125 L55.6831683,19.125 Z" id="Path" fill="#2969F6"></path>
                <path d="M48.9009901,19.3223684 L49.8118812,19.3223684 L49.8118812,22.5394737 C49.8118812,22.5394737 49.8118812,22.5394737 49.8118812,22.5394737 C43.3006937,22.9080156 38.2654376,28.3730105 38.4503911,34.8706211 C38.6353446,41.3682316 43.9733715,46.539892 50.4950495,46.539892 C57.0167275,46.539892 62.3547544,41.3682316 62.5397079,34.8706211 C62.7246614,28.3730105 57.6894053,22.9080156 51.1782178,22.5394737 L51.1782178,19.2828947 L52.0990099,19.2828947 C52.3645597,19.3147002 52.6247722,19.191372 52.7676274,18.9660022 C52.9104826,18.7406323 52.9104826,18.4534466 52.7676274,18.2280768 C52.6247722,18.0027069 52.3645597,17.8793787 52.0990099,17.9111842 L48.9009901,17.9111842 C48.6354403,17.8793787 48.3752278,18.0027069 48.2323726,18.2280768 C48.0895174,18.4534466 48.0895174,18.7406323 48.2323726,18.9660022 C48.3752278,19.191372 48.6354403,19.3147002 48.9009901,19.2828947 L48.9009901,19.3223684 Z M61.1782225,34.5394737 C61.1836834,40.4147623 56.4095336,45.1820415 50.5148545,45.1874955 C44.6201755,45.1929402 39.8371614,40.4344961 39.8316877,34.5592075 C39.8262233,28.6839188 44.6003705,23.9166369 50.4950495,23.9111842 C56.3874759,23.9111842 61.1672958,28.6664403 61.1782225,34.5394737 L61.1782225,34.5394737 Z" id="Shape" fill="#2969F6"></path>
                <path d="M99.009901,68.5657895 L99.009901,68.5657895 C99.0202417,68.5037144 99.0202417,68.4403646 99.009901,68.3782895 L99.009901,68.3782895 C99.009901,68.3782895 99.009901,68.3782895 99.009901,68.3782895 C99.0146422,68.3356569 99.0146422,68.2926326 99.009901,68.25 C99.0189982,68.2077175 99.0189982,68.163993 99.009901,68.1217105 L98.9405941,68.0032895 C98.9242874,67.9715042 98.9043534,67.9417016 98.8811881,67.9144737 L94.3960396,63.0493421 C94.2724624,62.910024 94.0977492,62.8262494 93.9114098,62.8169631 C93.7250703,62.8076767 93.5428444,62.8736631 93.4059406,63 C93.2703323,63.1285392 93.1935641,63.3068972 93.1935641,63.4934211 C93.1935641,63.6799449 93.2703323,63.8583029 93.4059406,63.9868421 L96.8514851,67.7368421 L71.4653465,67.7368421 C71.1961181,67.7048263 70.9324169,67.8299899 70.7876621,68.0584993 C70.6429073,68.2870087 70.6429073,68.5781229 70.7876621,68.8066323 C70.9324169,69.0351417 71.1961181,69.1603053 71.4653465,69.1282895 L96.7227723,69.1282895 L93.3465347,72.8684211 C93.0904344,73.1575912 93.1169876,73.5986886 93.4059406,73.8552632 C93.5330855,73.9707578 93.6992658,74.034192 93.8712871,74.0329142 C94.0671333,74.0320232 94.2537362,73.9497588 94.3861386,73.8059211 L98.7227723,68.9901316 C98.869465,68.8905463 98.9722359,68.7386631 99.009901,68.5657895 Z" id="Path" fill="#032663"></path>
                <path d="M50.5841584,69.0789474 C69.6879304,69.0299848 85.148578,53.5804673 85.1485149,34.5394737 C85.1485149,34.2236842 85.1485149,33.8980263 85.1485149,33.5526316 L88.8316832,36.8289474 C88.9607688,36.9412662 89.1256925,37.0042207 89.2970297,37.0065789 C89.4960679,37.0072553 89.686326,36.9249621 89.8217822,36.7796053 C90.0778824,36.4904351 90.0513292,36.0493377 89.7623762,35.7927632 L85.039604,31.5789474 C84.644814,26.6301118 83.1607843,21.8287772 80.6930693,17.5164474 C77.8874965,13.0002843 74.2371119,9.0637348 69.9405941,5.92105263 C68.3029407,4.75507726 66.5475352,3.76284787 64.7029703,2.96052632 C60.2609227,0.985885991 55.4479248,-0.0233353994 50.5841584,-0.000395625431 C37.7128713,-0.000395625431 25.8910891,7.63815789 18.990099,20.4276316 C16.7027046,24.8619522 15.61736,29.8149824 15.8415842,34.7960526 L12.0594059,31.4309211 C11.7853487,31.1599781 11.3433641,31.1599781 11.0693069,31.4309211 C10.9425531,31.5673745 10.8763489,31.749001 10.8856659,31.9347275 C10.8949829,32.120454 10.979034,32.2945924 11.1188119,32.4177632 L15.9405941,36.7105263 C16.14966,39.4984539 16.7050598,42.2497441 17.5940594,44.9013158 C19.9851465,52.4158027 24.8743956,58.8936327 31.4554455,63.2664474 C31.6108646,63.3750557 31.8037439,63.4164044 31.9902204,63.3810904 C32.1766969,63.3457764 32.3409205,63.2368013 32.4455446,63.0789474 C32.556415,62.9237097 32.5980249,62.7297198 32.5605312,62.5428678 C32.5230374,62.3560158 32.4097705,62.1928993 32.2475248,62.0921053 C25.9223454,57.884649 21.2250873,51.6538433 18.9306931,44.4276316 C18.1046153,41.8656855 17.5828986,39.2160015 17.3762376,36.5328947 L21.9405941,32.3881579 C22.1415358,32.1185443 22.118797,31.743948 21.8867081,31.5004476 C21.6546193,31.2569472 21.2804459,31.2151155 21,31.4013158 L17.2772277,34.7861842 C17.051187,30.0434428 18.0752588,25.3243923 20.2475248,21.0986842 C26.9009901,8.76315789 38.2475248,1.36184211 50.6138614,1.36184211 C55.2770164,1.36681936 59.8862974,2.35559751 64.1386139,4.26315789 C65.8775978,5.02030507 67.5360537,5.94929135 69.0891089,7.03618421 C73.2242724,10.075821 76.7506091,13.8616948 79.4851485,18.1973684 C80.8711917,20.6341805 81.9392419,23.2374872 82.6633663,25.9440789 C83.1564628,27.8002911 83.4877277,29.6954969 83.6534653,31.6085526 L78.970297,35.8618421 C78.7037272,36.137139 78.7037272,36.5733873 78.970297,36.8486842 C79.1037216,36.9898886 79.2905612,37.0686761 79.4851485,37.0657895 C79.6597386,37.0649085 79.8282744,37.0019154 79.960396,36.8881579 L83.8019802,33.3947368 C83.8019802,33.7697368 83.8019802,34.1546053 83.8019802,34.5296053 C83.7965392,52.8191001 68.9339951,67.6504159 50.5841584,67.6776316 L10.7029703,67.6776316 C10.4337419,67.6456158 10.1700407,67.7707793 10.0252859,67.9992887 C9.88053108,68.2277982 9.88053108,68.5189124 10.0252859,68.7474218 C10.1700407,68.9759312 10.4337419,69.1010947 10.7029703,69.0690789 L50.5841584,69.0690789 L50.5841584,69.0789474 Z" id="Path" fill="#A8C5DD"></path>
                <path d="M5.64356436,64.1447368 C7.98493073,64.1500949 9.88469901,66.0348069 9.9009901,68.3684211 C9.90294947,68.6135616 9.87972611,68.8582581 9.83168317,69.0986842 C9.49751123,71.1169425 7.76331618,72.6083899 5.71129033,72.6423163 C3.65926448,72.6762427 1.87639456,71.2429433 1.47524752,69.2368421 C1.4238834,68.9501713 1.39738286,68.6596243 1.3960396,68.3684211 C1.41228519,66.0386391 3.30606178,64.1554919 5.64356436,64.1447368 M5.64356436,62.7631579 C2.53666778,62.7685384 0.0163187844,65.2717826 -8.8895048e-06,68.3684211 C-0.00069295772,68.7530925 0.0391292087,69.1367738 0.118811881,69.5131579 C0.66781063,72.1608953 3.02908918,74.0447785 5.74131087,73.998919 C8.45353256,73.9530594 10.7493424,71.9904319 11.2079208,69.3256579 C11.2669259,69.000121 11.2934579,68.6695622 11.2871287,68.3388158 C11.2871335,65.2306137 8.76201978,62.7093908 5.64356436,62.7039474 L5.64356436,62.7631579 Z" id="Shape" fill="#032663"></path>
            </g>
        </g>
    </g>
</svg>

<svg width="100" height="74" xmlns="http://www.w3.org/2000/svg"><g fill-rule="nonzero" fill="none"><path d="M50.495 32.25a2.273 2.273 0 00-2.257 2.276 2.274 2.274 0 002.27 2.263 2.274 2.274 0 002.284-2.25 2.235 2.235 0 00-.317-1.075l4.693-4.737a.696.696 0 000-.987.702.702 0 00-.99 0l-4.693 4.747a2.244 2.244 0 00-.99-.237zm0 3.178a.91.91 0 01-.91-.908.91.91 0 01.91-.908.91.91 0 01.644 1.55.912.912 0 01-.644.266z" fill="#2969F6"/><path d="M55.683 19.125a.695.695 0 00-.73.094.69.69 0 00.295 1.209c6.959 2.322 11.195 9.338 9.996 16.555-1.2 7.216-7.48 12.496-14.82 12.457-7.338-.039-13.562-5.385-14.685-12.613-1.123-7.229 3.188-14.2 10.172-16.449a.682.682 0 00.35-1.177.684.684 0 00-.716-.125c-7.622 2.457-12.324 10.068-11.096 17.957 1.23 7.89 8.025 13.721 16.035 13.76 8.01.039 14.863-5.727 16.168-13.604 1.306-7.877-3.322-15.533-10.92-18.064h-.049z" fill="#2969F6"/><path d="M48.901 19.322h.91v3.217c-6.51.369-11.546 5.834-11.36 12.332.184 6.497 5.522 11.669 12.044 11.669s11.86-5.172 12.045-11.67c.185-6.497-4.85-11.962-11.362-12.33v-3.257h.921a.689.689 0 100-1.372h-3.198a.689.689 0 100 1.372v.04zM61.178 34.54c.006 5.876-4.768 10.643-10.663 10.648-5.895.006-10.678-4.753-10.683-10.628-.006-5.875 4.768-10.642 10.663-10.648 5.892 0 10.672 4.755 10.683 10.628z" fill="#2969F6"/><path d="M99.01 68.566a.57.57 0 000-.188.58.58 0 000-.128.305.305 0 000-.128l-.07-.119a.464.464 0 00-.059-.089l-4.485-4.865a.694.694 0 00-.99-.049.68.68 0 000 .987l3.445 3.75H71.465a.704.704 0 00-.677.321.699.699 0 000 .749.704.704 0 00.677.321h25.258l-3.376 3.74a.699.699 0 001.04.938l4.336-4.816a.69.69 0 00.287-.424z" fill="#032663"/><path d="M50.584 69.079C69.688 69.03 85.15 53.58 85.15 34.539v-.986l3.683 3.276c.129.112.294.175.465.178.2 0 .39-.082.525-.227a.699.699 0 00-.06-.987l-4.722-4.214a33.71 33.71 0 00-4.347-14.063A41.5 41.5 0 0069.941 5.921a28.917 28.917 0 00-5.238-2.96A34.36 34.36 0 0050.584 0C37.713 0 25.891 7.638 18.99 20.428a28.54 28.54 0 00-3.148 14.368l-3.783-3.365a.705.705 0 00-.99 0 .69.69 0 00.05.987l4.822 4.293c.209 2.787.764 5.539 1.653 8.19a34.68 34.68 0 0013.861 18.365.705.705 0 00.99-.187.689.689 0 00-.197-.987A33.337 33.337 0 0118.93 44.428a34.311 34.311 0 01-1.555-7.895l4.565-4.145a.69.69 0 00-.054-.888.695.695 0 00-.887-.099l-3.723 3.385a27.113 27.113 0 012.97-13.687c6.654-12.336 18-19.737 30.367-19.737 4.663.005 9.272.994 13.525 2.901a28.422 28.422 0 014.95 2.773 40.997 40.997 0 0110.396 11.161 32.83 32.83 0 013.178 7.747c.493 1.856.825 3.751.99 5.665l-4.683 4.253a.709.709 0 00.515 1.204.734.734 0 00.475-.178l3.842-3.493v1.135c-.005 18.29-14.868 33.12-33.218 33.148H10.703a.699.699 0 100 1.391h39.881v.01z" fill="#A8C5DD"/><path d="M5.644 64.145A4.26 4.26 0 019.9 68.368a3.58 3.58 0 01-.07.73 4.243 4.243 0 01-4.12 3.544 4.244 4.244 0 01-4.236-3.405 5.056 5.056 0 01-.079-.869 4.26 4.26 0 014.248-4.223m0-1.382C2.537 62.77.016 65.272 0 68.368a5.64 5.64 0 005.741 5.63 5.638 5.638 0 005.467-4.672c.059-.326.085-.656.08-.987 0-3.108-2.526-5.63-5.644-5.635v.06z" fill="#032663"/></g></svg>
